_includes/svg/brands-uol.svg

<?xml version="1.0" encoding="UTF-8" standalone="no"?>
<svg width="135px" height="44px" viewBox="0 0 135 44" version="1.1" xmlns="http://www.w3.org/2000/svg" xmlns:xlink="http://www.w3.org/1999/xlink" xmlns:sketch="http://www.bohemiancoding.com/sketch/ns">
    <!-- Generator: Sketch 3.4.4 (17249) - http://www.bohemiancoding.com/sketch -->
    <title>UOL</title>
    <desc>Created with Sketch.</desc>
    <defs></defs>
    <g id="landing" stroke="none" stroke-width="1" fill="none" fill-rule="evenodd" sketch:type="MSPage">
        <g id="landing_page" sketch:type="MSArtboardGroup" transform="translate(-729.000000, -2661.000000)" fill="#F2F2F2">
            <g id="portfolio" sketch:type="MSLayerGroup" transform="translate(-1.000000, 1536.000000)">
                <g id="brands" transform="translate(1.000000, 969.000000)" sketch:type="MSShapeGroup">
                    <g id="brand-logos" transform="translate(65.000000, 150.000000)">
                        <g id="UOL" transform="translate(664.000000, 6.000000)">
                            <path d="M5.17328804,7.92146667 C3.56942935,9.812 2.3463587,11.9812 1.44904891,14.3366667 C0.512853261,16.7926 0.0161413043,19.3189333 0.0161413043,22.0117333 C0.0161413043,25.0477333 0.669130435,27.8681333 1.79241848,30.5455333 C2.90396739,33.1950667 4.42858696,35.4720667 6.43451087,37.4762667 C8.38320652,39.4232667 10.6752717,40.9706 13.3107065,42.1153333 C15.946875,43.2608 18.8119565,43.8914667 21.7922283,43.8914667 C24.8297283,43.8914667 27.6463859,43.2820667 30.3302446,42.1153333 C32.9179891,40.9911333 35.2298641,39.4526 37.2064402,37.4762667 C39.18375,35.4999333 40.6885598,33.1745333 41.7913043,30.5455333 C42.922663,27.8476 43.5675815,25.0477333 43.5675815,22.0117333 C43.5675815,19.3189333 43.0708696,16.7926 42.1346739,14.3366667 C41.2373641,11.9812 40.0289674,9.85746667 38.4104348,7.92146667 C36.8197826,6.01993333 34.9627989,4.444 32.8512228,3.2252 C29.5466576,1.3178 26.146712,0.189933333 22.1928261,0.189933333 L21.6198098,0.189933333 C17.7238859,0.189933333 14.1566576,1.3068 10.7897283,3.2252 C8.67154891,4.43153333 6.77788043,6.03166667 5.17328804,7.92146667 Z M33.7683424,25.2765333 C33.4249728,23.7871333 32.9091848,22.4128667 32.1644837,21.0950667 C30.8460326,21.4962 29.7,22.1833333 28.6111957,23.1 C27.465163,24.0738667 26.4908152,25.2765333 25.7461141,26.6508 C25.1158696,28.0258 24.714538,29.3428667 24.6000815,30.7178667 C24.4283967,32.0349333 24.6000815,33.2376 24.9434511,34.3830667 C25.1158696,34.7842 25.2303261,35.1281333 25.4592391,35.4720667 C26.8921467,35.2997333 28.2098641,34.8986 29.5275815,34.3258667 C30.9032609,33.8103333 32.1644837,33.066 33.3670109,32.1500667 L33.4822011,32.0921333 C33.7111141,31.2326667 33.8827989,30.3739333 33.9979891,29.5144667 C34.1124457,28.083 34.0552174,26.7087333 33.7683424,25.2765333 Z M25.1158696,14.2794667 C23.1099457,13.42 20.932337,13.0196 18.6975,13.0196 C16.5198913,13.0768 14.4567391,13.5351333 12.5660054,14.4510667 C10.6752717,15.3105333 9.01345109,16.5704 7.63777174,18.1742 C6.66342391,19.3768667 5.86149457,20.6946667 5.34570652,22.0689333 C5.74630435,23.7871333 6.37728261,25.3909333 7.29366848,26.9947333 C8.61211957,29.2284667 10.3311685,31.119 12.4515489,32.6076667 C14.5139674,34.0970667 16.8639946,35.0709333 19.3849728,35.6429333 C20.932337,35.9296667 22.5369293,36.0440667 24.1415217,35.9868667 C23.5105435,34.9565333 23.1099457,33.8675333 22.9382609,32.6076667 C22.7086141,31.3478 22.7658424,30.0879333 22.9947554,28.7129333 C23.2816304,27.0519333 23.9126087,25.5053333 24.7717663,24.0738667 C25.6888859,22.6416667 26.8921467,21.3246 28.3250543,20.2935333 C29.2414402,19.6064 30.215788,19.0908667 31.1901359,18.6897333 L30.6743478,18.117 C29.0697554,16.456 27.2355163,15.1389333 25.1158696,14.2794667 Z M36.3472826,8.0938 C33.6538859,4.829 30.1585598,2.70966667 25.8605707,1.90813333 C21.6198098,1.10586667 17.6086957,1.7358 13.8264946,3.79793333 C11.8777989,4.8862 10.216712,6.2612 8.89826087,7.865 C7.52331522,9.52526667 6.49173913,11.4158 5.8042663,13.5351333 C5.11605978,15.7116667 4.944375,18.0026 5.17328804,20.2363333 C5.74630435,18.8041333 6.60619565,17.4870667 7.63777174,16.2264667 C9.12790761,14.4510667 10.961413,13.134 13.0245652,12.1601333 C15.0869837,11.2442 17.3218207,10.7286667 19.6718478,10.6714667 C22.0211413,10.6714667 24.3132065,11.1290667 26.433587,12.0457333 C28.6684239,12.9624 30.6171196,14.3366667 32.2782065,16.1692667 C32.9091848,16.7992 33.4249728,17.5442667 33.9407609,18.2886 C34.685462,18.2886 35.430163,18.3458 36.0611413,18.5181333 C37.7222283,18.9764667 39.0406793,19.8352 40.0722554,21.0950667 L40.1294837,20.2935333 C40.3011685,18.0598 40.0722554,15.9404667 39.4420109,13.8783333 C38.8110326,11.8169333 37.7801902,9.8692 36.3472826,8.0938 Z M4.71546196,28.7129333 C5.00160326,30.4311333 5.5173913,32.0921333 6.37728261,33.5815333 C7.17921196,35.0709333 8.2680163,36.4452 9.64369565,37.6478667 L10.3311685,38.2206 C12.680462,39.8244 15.2014402,40.9698667 17.9527989,41.5426 C19.7290761,41.8865333 21.5053533,41.7721333 23.2244022,41.371 C25.0579076,40.9698667 26.7776902,40.2255333 28.3815489,39.1372667 C26.8921467,38.7933333 25.5736957,37.9918 24.5421196,36.7891333 L24.1415217,36.3308 C21.963913,36.5596 19.7863043,36.5024 17.6086957,36.0440667 C14.8580707,35.4141333 12.4515489,34.2686667 10.216712,32.6648667 C8.09633152,31.0610667 6.32005435,28.9996667 5.00160326,26.5936 L4.6575,25.9064667 C4.60027174,26.8231333 4.60027174,27.7962667 4.71546196,28.7129333 Z M35.0867935,20.6367333 C35.6598098,21.8401333 36.0031793,23.1572 36.1755978,24.475 C36.3472826,25.7920667 36.4045109,27.0519333 36.2900543,28.3118 L36.0611413,29.5724 C37.7801902,27.5674667 38.9262228,25.3337333 39.6136957,22.7560667 C39.2123641,22.3556667 38.8110326,21.9545333 38.3532065,21.6106 C37.436087,20.9806667 36.3472826,20.6367333 35.0867935,20.6367333 Z M41.8485326,15.1961333 C41.3327446,13.5351333 40.6452717,11.9313333 39.7853804,10.4419333 C38.9262228,9.00973333 37.8946467,7.69266667 36.6341576,6.49 C35.488125,5.28733333 34.1696739,4.25626667 32.6802717,3.3968 C33.9407609,4.25626667 35.0867935,5.28733333 36.1183696,6.4328 C37.7222283,8.2654 38.9262228,10.2131333 39.6709239,12.3896667 C40.415625,14.6234 40.7597283,16.9143333 40.5880435,19.3196667 C40.5300815,20.0647333 40.415625,20.7518667 40.3011685,21.4962 C40.5880435,21.9545333 40.8741848,22.5272667 41.1030978,23.1 C41.6768478,24.761 41.7913043,26.5364 41.5044293,28.3118 C42.3643207,25.8492667 42.8228804,23.2716 42.7656522,20.5802667 C42.650462,18.7469333 42.3643207,16.9143333 41.8485326,15.1961333 Z M40.415625,24.0738667 L39.899837,23.2144 C39.1551359,25.7920667 37.7801902,28.083 36.0031793,30.1451333 C35.6025815,31.8633333 34.914375,33.4099333 33.9979891,34.8414 C33.0808696,36.2736 31.8776087,37.5334667 30.5019293,38.6217333 C31.4762772,38.6789333 32.450625,38.5066 33.4249728,38.1634 C34.3413587,37.8202 35.20125,37.3046667 36.0611413,36.6175333 C37.2064402,35.5285333 38.2959783,34.2686667 39.2123641,32.9516 L39.3840489,32.7220667 C39.7853804,31.8633333 40.186712,31.0038667 40.473587,30.2023333 C40.7597283,29.3428667 40.931413,28.4841333 40.9886413,27.6818667 C41.0458696,26.8231333 41.0458696,26.0780667 40.8741848,25.3337333 C40.7597283,24.8754 40.5880435,24.475 40.415625,24.0738667 Z M31.6486957,35.7580667 C32.3354348,34.7842 32.9091848,33.6959333 33.3097826,32.6076667 C31.0177174,34.2686667 28.4967391,35.4141333 25.7461141,35.9868667 C26.1474457,36.6175333 26.6625,37.1323333 27.2355163,37.5334667 C27.8092663,37.9346 28.4395109,38.2206 29.184212,38.4501333 C30.1013315,37.6478667 30.9604891,36.7319333 31.6486957,35.7580667 Z M20.1296739,41.8865333 L22.5941576,42.0009333 C24.714538,41.9437333 26.720462,41.5426 28.6684239,40.9126667 C30.5019293,40.2827333 32.2782065,39.424 33.8255707,38.3357333 C32.8512228,38.7933333 31.8203804,39.1372667 30.7315761,39.1944667 C30.3882065,39.2516667 29.9861413,39.2516667 29.5855435,39.2516667 C26.7776902,41.0842667 23.6257337,41.9437333 20.1296739,41.8865333 Z M2.70953804,13.9927333 C1.96483696,16.0548667 1.56350543,18.2314 1.44904891,20.5802667 C1.39182065,23.6155333 1.96483696,26.5364 3.11086957,29.2856667 C3.68388587,30.6034667 4.3713587,31.8633333 5.2305163,33.066 C6.03317935,34.2114667 6.95029891,35.2997333 7.9811413,36.2736 C5.74630435,33.8103333 4.42858696,30.9466667 4.02798913,27.7390667 C3.91279891,26.6508 3.91279891,25.6204667 3.97002717,24.5314667 C3.22532609,22.4700667 2.82399457,20.4079333 2.82399457,18.2886 C2.82399457,16.2844 3.16809783,14.3366667 3.79834239,12.3317333 C4.31413043,10.9574667 5.00160326,9.6404 5.74630435,8.43773333 C4.42858696,10.1559333 3.45423913,11.9885333 2.70953804,13.9927333 Z" id="Fill-2"></path>
                            <path d="M95.3136685,8.151 C93.193288,8.151 91.2445924,8.4942 89.411087,9.23926667 C87.5775815,9.9836 85.9729891,11.0146667 84.5973098,12.3896667 C83.2223641,13.7639333 82.1335598,15.3105333 81.446087,17.0859333 C80.7006522,18.8613333 80.3572826,20.8090667 80.3572826,22.9284 C80.3572826,24.9326 80.7006522,26.8803333 81.446087,28.6557333 C82.1335598,30.3739333 83.2223641,31.9777333 84.5973098,33.352 C86.0302174,34.6698 87.6348098,35.7580667 89.4683152,36.5024 C91.2445924,37.1895333 93.2505163,37.5906667 95.3136685,37.5906667 C97.4340489,37.5906667 99.3247826,37.1895333 101.215516,36.5024 C102.992527,35.7580667 104.654348,34.6698 106.029293,33.352 C107.462201,31.9777333 108.493777,30.3739333 109.238478,28.5985333 C109.983179,26.8231333 110.327283,24.9326 110.327283,22.9284 C110.327283,20.8090667 109.983179,18.8613333 109.238478,17.0859333 C108.551005,15.3105333 107.519429,13.7639333 106.086522,12.3896667 C104.711576,11.0146667 103.049755,9.9836 101.215516,9.23926667 C99.3820109,8.4942 97.4340489,8.151 95.3136685,8.151 L95.3136685,8.151 Z M95.3136685,17.5442667 C96.7458424,17.5442667 97.8926087,18.0026 98.7517663,19.0336667 C99.6109239,20.0075333 100.069484,21.2674 100.069484,22.9284 C100.069484,24.475 99.6109239,25.7920667 98.7517663,26.7087333 C97.8926087,27.6818667 96.7458424,28.1402 95.3136685,28.1402 C93.8807609,28.1402 92.7919565,27.6818667 91.9320652,26.7087333 C91.0156793,25.7920667 90.6143478,24.475 90.6143478,22.9284 C90.6143478,21.2674 91.0156793,20.0075333 91.9320652,19.0336667 C92.7919565,18.0026 93.8807609,17.5442667 95.3136685,17.5442667 Z M75.7151902,28.9417333 C75.944837,27.6246667 76.0592935,25.9636667 76.0592935,23.9594667 L76.0592935,8.78093333 L65.973913,8.78093333 L65.973913,24.0738667 C65.973913,25.7920667 65.8014946,26.9947333 65.3436685,27.7390667 C64.8851087,28.4269333 64.1969022,28.7701333 63.1660598,28.7701333 C62.1344837,28.7701333 61.4470109,28.4269333 60.9884511,27.7390667 C60.5871196,27.1091333 60.3582065,25.8492667 60.3582065,24.0738667 L60.3582065,8.78093333 L50.3293207,8.78093333 L50.3293207,23.9594667 C50.2720924,26.0780667 50.4445109,27.6818667 50.6734239,28.9417333 C50.902337,30.2595333 51.3608967,31.2906 51.8766848,32.1500667 C53.0227174,33.9254667 54.5700815,35.2425333 56.5187772,36.1584667 C58.4095109,37.1323333 60.6443478,37.5906667 63.1660598,37.5906667 C65.687038,37.5906667 67.8646467,37.1323333 69.8126087,36.1584667 C71.7613043,35.2425333 73.3086685,33.9254667 74.3974728,32.1500667 C74.9704891,31.2906 75.4290489,30.2023333 75.7151902,28.9417333 Z M124.653424,8.78093333 L114.56731,8.78093333 L114.56731,36.8463333 L134.452663,36.8463333 L134.452663,27.7390667 L124.653424,27.7390667 L124.653424,8.78093333 Z" id="Fill-3"></path>
                        </g>
                    </g>
                </g>
            </g>
        </g>
    </g>
</svg>

<svg width="135" height="44" viewBox="0 0 135 44" xmlns="http://www.w3.org/2000/svg"><title>UOL</title><g fill="#F2F2F2" fill-rule="evenodd"><path d="M5.173 7.92C3.57 9.813 2.346 11.98 1.45 14.338.512 16.793.015 19.32.015 22.012c0 3.036.653 5.856 1.776 8.534a21.25 21.25 0 0 0 4.643 6.93c1.948 1.947 4.24 3.495 6.876 4.64a21.226 21.226 0 0 0 8.482 1.775c3.038 0 5.854-.608 8.538-1.775 2.588-1.124 4.9-2.662 6.876-4.64 1.978-1.975 3.483-4.3 4.585-6.93 1.133-2.697 1.778-5.497 1.778-8.533 0-2.693-.497-5.22-1.433-7.675-.898-2.356-2.106-4.48-3.725-6.416a20.742 20.742 0 0 0-5.56-4.695C29.548 1.318 26.148.19 22.194.19h-.573c-3.896 0-7.463 1.117-10.83 3.035C8.672 4.432 6.778 6.032 5.173 7.92zm28.595 17.357a15.41 15.41 0 0 0-1.604-4.182c-1.318.4-2.464 1.088-3.553 2.005a12.413 12.413 0 0 0-2.864 3.55c-.63 1.376-1.03 2.693-1.146 4.068-.172 1.317 0 2.52.343 3.665.173.4.287.745.516 1.09 1.432-.173 2.75-.574 4.068-1.147 1.375-.516 2.636-1.26 3.84-2.176l.114-.058c.23-.86.4-1.718.516-2.578.114-1.43.057-2.805-.23-4.237zM25.116 14.28c-2.006-.86-4.184-1.26-6.418-1.26-2.178.057-4.24.515-6.132 1.43a14.23 14.23 0 0 0-4.928 3.724c-.975 1.203-1.777 2.52-2.292 3.895a18.022 18.022 0 0 0 1.948 4.925c1.318 2.233 3.037 4.124 5.158 5.613 2.062 1.49 4.412 2.463 6.933 3.035a21.9 21.9 0 0 0 4.757.344 8.51 8.51 0 0 1-1.204-3.38c-.23-1.26-.172-2.52.057-3.894.287-1.66.918-3.208 1.777-4.64a13.913 13.913 0 0 1 3.553-3.78 12.98 12.98 0 0 1 2.865-1.603l-.516-.573c-1.604-1.66-3.438-2.978-5.558-3.838zm11.23-6.186C33.655 4.83 30.16 2.71 25.862 1.908c-4.24-.802-8.25-.172-12.034 1.89-1.948 1.088-3.61 2.463-4.928 4.067a17.044 17.044 0 0 0-3.094 5.67c-.688 2.177-.86 4.468-.63 6.7.572-1.43 1.432-2.748 2.464-4.01 1.49-1.774 3.323-3.09 5.387-4.065a17.337 17.337 0 0 1 6.647-1.49c2.35 0 4.64.46 6.762 1.376 2.234.916 4.183 2.29 5.844 4.123.63.63 1.147 1.374 1.663 2.12.745 0 1.49.056 2.12.228 1.662.458 2.98 1.317 4.012 2.577l.057-.8c.17-2.235-.058-4.355-.688-6.417a17.192 17.192 0 0 0-3.095-5.784zm-31.63 20.62c.286 1.717.8 3.378 1.66 4.868a14.578 14.578 0 0 0 3.268 4.066l.687.573c2.35 1.604 4.87 2.75 7.623 3.323 1.776.344 3.552.23 5.27-.172a14.72 14.72 0 0 0 5.16-2.233c-1.49-.344-2.81-1.145-3.84-2.348l-.4-.46c-2.18.23-4.357.172-6.534-.286-2.752-.63-5.158-1.775-7.393-3.38a19.09 19.09 0 0 1-5.215-6.07l-.345-.688c-.057.917-.057 1.89.058 2.807zm30.37-8.077c.574 1.203.917 2.52 1.09 3.838.17 1.317.23 2.577.114 3.837l-.23 1.26c1.72-2.005 2.866-4.238 3.554-6.816-.402-.4-.803-.8-1.26-1.145-.918-.63-2.007-.973-3.267-.973zm6.763-5.44a23.388 23.388 0 0 0-2.065-4.755 18.723 18.723 0 0 0-3.15-3.952 17.52 17.52 0 0 0-3.955-3.093c1.26.86 2.407 1.89 3.438 3.036 1.604 1.832 2.808 3.78 3.553 5.957.746 2.233 1.09 4.524.918 6.93-.058.745-.172 1.432-.287 2.176.288.46.574 1.03.803 1.604.574 1.66.688 3.436.4 5.212.86-2.463 1.32-5.04 1.263-7.732-.116-1.833-.402-3.666-.917-5.384zm-1.434 8.877l-.516-.86c-.745 2.578-2.12 4.87-3.897 6.93-.4 1.72-1.09 3.266-2.005 4.697-.917 1.434-2.12 2.693-3.496 3.782.974.057 1.95-.115 2.923-.46.916-.342 1.776-.857 2.636-1.544a24.232 24.232 0 0 0 3.152-3.666l.172-.23c.4-.86.803-1.718 1.09-2.52.286-.86.457-1.718.515-2.52.056-.86.056-1.604-.116-2.348-.114-.46-.286-.86-.458-1.26zM31.65 35.758a13.853 13.853 0 0 0 1.66-3.15c-2.292 1.66-4.813 2.806-7.564 3.38.4.63.917 1.144 1.49 1.545.573.402 1.204.688 1.948.917.917-.802 1.776-1.718 2.465-2.692zm-11.52 6.13l2.464.113c2.12-.056 4.126-.457 6.074-1.087 1.834-.63 3.61-1.49 5.158-2.577-.975.457-2.006.8-3.094.858-.344.058-.746.058-1.146.058-2.808 1.832-5.96 2.692-9.456 2.635zM2.71 13.992c-.745 2.062-1.146 4.238-1.26 6.587a21.422 21.422 0 0 0 1.66 8.706 20.525 20.525 0 0 0 2.12 3.78 20.942 20.942 0 0 0 2.75 3.208C5.747 33.81 4.43 30.947 4.03 27.74c-.115-1.09-.115-2.12-.058-3.21-.745-2.06-1.146-4.122-1.146-6.24 0-2.006.344-3.953.974-5.958.516-1.375 1.204-2.692 1.948-3.894-1.317 1.718-2.292 3.55-3.036 5.555zM95.314 8.15c-2.12 0-4.07.344-5.903 1.09-1.832.744-3.437 1.775-4.813 3.15-1.375 1.374-2.463 2.92-3.15 4.696-.746 1.775-1.09 3.723-1.09 5.842 0 2.005.344 3.952 1.09 5.728.687 1.718 1.775 3.322 3.15 4.696 1.433 1.318 3.038 2.406 4.87 3.15a16.317 16.317 0 0 0 5.847 1.09c2.12 0 4.01-.402 5.902-1.09a15.892 15.892 0 0 0 4.813-3.15c1.432-1.374 2.464-2.978 3.208-4.753.745-1.777 1.09-3.667 1.09-5.672 0-2.12-.345-4.067-1.09-5.842-.687-1.775-1.72-3.322-3.15-4.696-1.376-1.375-3.038-2.406-4.872-3.15-1.834-.746-3.782-1.09-5.902-1.09zm0 9.394c1.432 0 2.58.46 3.438 1.49.86.974 1.317 2.233 1.317 3.894 0 1.547-.46 2.864-1.318 3.78-.86.974-2.006 1.432-3.438 1.432-1.433 0-2.522-.458-3.382-1.43-.916-.918-1.318-2.235-1.318-3.782 0-1.66.402-2.92 1.318-3.894.86-1.03 1.95-1.49 3.382-1.49zm-19.6 11.398c.23-1.317.345-2.978.345-4.983V8.78H65.973v15.294c0 1.718-.173 2.92-.63 3.665-.46.687-1.147 1.03-2.178 1.03-1.032 0-1.72-.343-2.178-1.03-.4-.63-.63-1.89-.63-3.666V8.78h-10.03v15.18c-.056 2.118.117 3.722.345 4.982a9.145 9.145 0 0 0 1.204 3.208c1.146 1.775 2.693 3.093 4.642 4.008 1.89.974 4.124 1.433 6.646 1.433 2.52 0 4.7-.458 6.647-1.432 1.948-.915 3.496-2.233 4.584-4.008.573-.86 1.032-1.948 1.318-3.208zm48.94-20.16h-10.087v28.064h19.886V27.74h-9.8V8.78z"/></g></svg>
